packages/dnb-eufemia/assets/icons/file_contract_medium.svg

<svg width="24" height="24" viewBox="0 0 24 24" fill="none" xmlns="http://www.w3.org/2000/svg">
<path d="M5 5H10.5M5 8H13.5M5 19H11.5M13 23H2.5C1.94772 23 1.5 22.5523 1.5 22V2.00001C1.5 1.44773 1.94771 1.00001 2.5 1.00001L12.5362 1C12.8304 1 13.1096 1.12951 13.2996 1.35406L18.2634 7.22037C18.4162 7.40092 18.5 7.62979 18.5 7.86631M16.8627 17.1776L16.2719 22.2762C16.2223 22.5402 16.353 22.8053 16.5944 22.93C16.8358 23.0546 17.1315 23.0099 17.3238 22.8196L19.0252 21.1446L20.7267 22.8196C20.9192 23.0093 21.2147 23.0538 21.4559 22.9293C21.6972 22.8047 21.8283 22.5402 21.7795 22.2762L21.1812 17.1445M19 17.8947C20.933 17.8947 22.5 16.3513 22.5 14.4473C22.5 12.5434 20.933 11 19 11C17.067 11 15.5 12.5434 15.5 14.4473C15.5 16.3513 17.067 17.8947 19 17.8947Z" stroke="black" stroke-width="1.5" stroke-linecap="round" stroke-linejoin="round"/>
</svg>

<svg width="24" height="24" viewBox="0 0 24 24" fill="none" xmlns="http://www.w3.org/2000/svg"><path d="M5 5h5.5M5 8h8.5M5 19h6.5m1.5 4H2.5a1 1 0 0 1-1-1V2a1 1 0 0 1 1-1h10.036a1 1 0 0 1 .764.354l4.963 5.866a1 1 0 0 1 .237.646m-1.637 9.312-.591 5.098a.61.61 0 0 0 .322.654.63.63 0 0 0 .73-.11l1.701-1.675 1.702 1.675a.63.63 0 0 0 .729.11.61.61 0 0 0 .323-.654l-.598-5.131m-2.181.75c1.933 0 3.5-1.544 3.5-3.448S20.933 11 19 11s-3.5 1.543-3.5 3.447c0 1.904 1.567 3.448 3.5 3.448Z" stroke="#000" stroke-width="1.5" stroke-linecap="round" stroke-linejoin="round"/></svg>
